images/icons/twitter.svg

<?xml version="1.0" encoding="UTF-8"?>
<!DOCTYPE svg PUBLIC "-//W3C//DTD SVG 1.1//EN" "http://www.w3.org/Graphics/SVG/1.1/DTD/svg11.dtd">
<!-- Creator: CorelDRAW 2018 (64-Bit) -->
<svg xmlns="http://www.w3.org/2000/svg" xml:space="preserve" width="2.9574mm" height="2.4589mm" version="1.1" style="shape-rendering:geometricPrecision; text-rendering:geometricPrecision; image-rendering:optimizeQuality; fill-rule:evenodd; clip-rule:evenodd"
viewBox="0 0 8.55 7.11"
 xmlns:xlink="http://www.w3.org/1999/xlink">
 <defs>
  <style type="text/css">
   <![CDATA[
    .fil0 {fill:#008FDF;fill-rule:nonzero}
   ]]>
  </style>
 </defs>
 <g id="Layer_x0020_1">
  <metadata id="CorelCorpID_0Corel-Layer"/>
  <path class="fil0" d="M4.15 1.69l0 0.43c0,0.07 -0.04,0.11 -0.11,0.11 -1.11,-0.15 -2.07,-0.54 -2.86,-1.17l-0.74 -0.69 -0.06 0c0,0.06 -0.07,0.2 -0.21,0.43l0 0.64c0.05,0.36 0.29,0.77 0.74,1.22l0 0.05c-0.24,0 -0.49,-0.07 -0.74,-0.21l0 0.05c0,0.68 0.44,1.27 1.33,1.75l-0.1 0.05 -0.26 0 -0.27 -0.05 0 0.1c0.4,0.74 0.92,1.12 1.54,1.12l0 0.16c-0.7,0.42 -1.39,0.64 -2.08,0.64l-0.32 0 0 0.1c1,0.46 1.87,0.69 2.6,0.69 1.54,0 2.85,-0.62 3.93,-1.86 0.78,-1.08 1.17,-2.11 1.17,-3.08l0 -0.37c0.57,-0.54 0.85,-0.84 0.86,-0.91l0 -0.05c-0.2,0.1 -0.49,0.19 -0.86,0.27l-0.05 -0.12c0.33,-0.19 0.58,-0.46 0.74,-0.79l0 -0.05 -0.05 0c-0.52,0.25 -0.84,0.38 -0.95,0.38l-0.16 0c-0.39,-0.32 -0.75,-0.5 -1.06,-0.53l-0.43 0c-0.59,0 -1.07,0.33 -1.43,1 -0.1,0.18 -0.16,0.41 -0.16,0.69z"/>
 </g>
</svg>

<svg xmlns="http://www.w3.org/2000/svg" width="11.178" height="9.293" viewBox="0 0 8.55 7.11" shape-rendering="geometricPrecision" text-rendering="geometricPrecision" image-rendering="optimizeQuality" fill-rule="evenodd" clip-rule="evenodd"><path d="M4.15 1.69v.43c0 .07-.04.11-.11.11-1.11-.15-2.07-.54-2.86-1.17L.44.37H.38C.38.43.31.57.17.8v.64c.05.36.29.77.74 1.22v.05c-.24 0-.49-.07-.74-.21v.05c0 .68.44 1.27 1.33 1.75l-.1.05h-.26L.87 4.3v.1c.4.74.92 1.12 1.54 1.12v.16c-.7.42-1.39.64-2.08.64H.01v.1c1 .46 1.87.69 2.6.69 1.54 0 2.85-.62 3.93-1.86.78-1.08 1.17-2.11 1.17-3.08V1.8c.57-.54.85-.84.86-.91V.84c-.2.1-.49.19-.86.27L7.66.99C7.99.8 8.24.53 8.4.2V.15h-.05c-.52.25-.84.38-.95.38h-.16C6.85.21 6.49.03 6.18 0h-.43c-.59 0-1.07.33-1.43 1-.1.18-.16.41-.16.69z" fill="#008fdf" fill-rule="nonzero"/></svg>
